packages/kaspersky-hexa-ui-icons/src/iconsSVGs/24/VulnerabilityScan.svg

<svg width="24" height="24" viewBox="0 0 24 24" fill="none" xmlns="http://www.w3.org/2000/svg">
<path d="M6 3C4.34315 3 3 4.34315 3 6V8C3 8.55228 3.44772 9 4 9C4.55228 9 5 8.55228 5 8V6C5 5.44772 5.44772 5 6 5H8C8.55228 5 9 4.55228 9 4C9 3.44772 8.55228 3 8 3H6Z" fill="black"/>
<path d="M16 3C15.4477 3 15 3.44772 15 4C15 4.55228 15.4477 5 16 5H18C18.5523 5 19 5.44772 19 6V8C19 8.55228 19.4477 9 20 9C20.5523 9 21 8.55228 21 8V6C21 4.34315 19.6569 3 18 3H16Z" fill="black"/>
<path d="M5 16C5 15.4477 4.55228 15 4 15C3.44772 15 3 15.4477 3 16V18C3 19.6569 4.34315 21 6 21H8C8.55228 21 9 20.5523 9 20C9 19.4477 8.55228 19 8 19H6C5.44772 19 5 18.5523 5 18V16Z" fill="black"/>
<path d="M21 16C21 15.4477 20.5523 15 20 15C19.4477 15 19 15.4477 19 16V18C19 18.5523 18.5523 19 18 19H16C15.4477 19 15 19.4477 15 20C15 20.5523 15.4477 21 16 21H18C19.6569 21 21 19.6569 21 18V16Z" fill="black"/>
<path d="M9.23448 12.1436L12.211 7.52762C12.4086 7.22115 12.8839 7.3611 12.8839 7.72577V10.8354C12.8839 11.0879 13.0886 11.2925 13.3411 11.2925H14.4582C14.7477 11.2925 14.9224 11.613 14.7655 11.8563L11.789 16.4724C11.5914 16.7788 11.1161 16.6389 11.1161 16.2742V13.1646C11.1161 12.9121 10.9114 12.7074 10.6589 12.7074H9.54178C9.25227 12.7074 9.07759 12.387 9.23448 12.1436Z" fill="black"/>
</svg>

<svg xmlns="http://www.w3.org/2000/svg" width="24" height="24" fill="none" viewBox="0 0 24 24"><path fill="#000" fill-rule="evenodd" d="M3 6c0-1.6569 1.3431-3 3-3h2c.5523 0 1 .4477 1 1s-.4477 1-1 1H6c-.5523 0-1 .4477-1 1v2c0 .5523-.4477 1-1 1s-1-.4477-1-1zm12-2c0-.5523.4477-1 1-1h2c1.6569 0 3 1.3431 3 3v2c0 .5523-.4477 1-1 1s-1-.4477-1-1V6c0-.5523-.4477-1-1-1h-2c-.5523 0-1-.4477-1-1m-5.7655 8.1436 2.9765-4.616c.1976-.3065.6729-.1665.6729.1982v3.1096c0 .2525.2047.4571.4572.4571h1.1171c.2895 0 .4642.3205.3073.5638l-2.9765 4.6161c-.1976.3064-.6729.1665-.6729-.1982v-3.1096a.457.457 0 0 0-.4572-.4572H9.5418c-.2895 0-.4642-.3204-.3073-.5638M5 16c0-.5523-.4477-1-1-1s-1 .4477-1 1v2c0 1.6569 1.3431 3 3 3h2c.5523 0 1-.4477 1-1s-.4477-1-1-1H6c-.5523 0-1-.4477-1-1zm16 0c0-.5523-.4477-1-1-1s-1 .4477-1 1v2c0 .5523-.4477 1-1 1h-2c-.5523 0-1 .4477-1 1s.4477 1 1 1h2c1.6569 0 3-1.3431 3-3z"/></svg>
